!!!COM: Music21
!!!OTL: Danza de Ribadavia
!!!OMV: pezas_pasacorredoiras_pasacorredoiras-de-ribadavia_danza-de-ribadavia.musicxml
**kern
*I"Bagpipes
*I'Bag
*clefG^2
*k[]
*M2/4
=1
!LO:TX:a:t=Andante
*MM96
!LO:TX:a:t=[quarter]=96
4r
16.cccLL
32bbK
16.ccc
32bbJJk
=||
8.aaL
16ggJk
16.cccLL
32bbK
16.ccc
32bbJJk
=
8.aaL
16ggJk
16aaLL
16gg
16aa
16ggJJ
=
16ffLL
16ee
16dd
16eeJJ
16ggLL
16ff
16ee
16ddJJ
=
8eeL
8ccJ
16.cccLL
32bbK
16.ccc
32bbJJk
=
8.aaL
16ggJk
16.cccLL
32bbK
16.ccc
32bbJJk
!!linebreak:original
=
8.aaL
16ggJk
16aaLL
16gg
16ff
16eeJJ
=
16ddLL
16cc
16dd
16eeJJ
16ggLL
16ff
16ee
16ddJJ
=
4cc
16.cccLL
32bbK
16.ccc
32bbJJk
=||
8.aaL
16ggJk
16.cccLL
32bbK
16.ccc
32bbJJk
=
8.aaL
16ggJk
16aaLL
16gg
16aa
16ggJJ
=
16ffLL
16ee
16dd
16eeJJ
16ggLL
16ff
16ee
16ddJJ
!!linebreak:original
=
8eeL
8ccJ
16.cccLL
32bbK
16.ccc
32bbJJk
=
8.aaL
16ggJk
16.cccLL
32bbK
16.ccc
32bbJJk
!!linebreak:original
=
8.aaL
16ggJk
16aaLL
16gg
16ff
16eeJJ
=
16ddLL
16cc
16dd
16eeJJ
16ggLL
16ff
16ee
16ddJJ
=
4cc
16.ddLL
32ccK
16.dd
32ccJJk
=||
8.eeL
16ggJk
16.ffLL
32eeK
16.ff
32aaJJk
=
8.ggL
16eeJk
16.ddLL
32ccK
16.dd
32ffJJk
!!linebreak:original
=
8.eeL
16ggJk
16.aaLL
32ggK
16.ff
32ddJJk
=
8eeL
8ccJ
16.ddLL
32ccK
16.dd
32ffJJk
=||
8.eeL
16ggJk
16.ffLL
32eeK
16.ff
32aaJJk
=
8.ggL
16eeJk
16.ddLL
32ccK
16.dd
32ffJJk
=
8.eeL
16ggJk
16.aaLL
32ggK
16.ff
32ddJJk
=||
4cc
16.cccLL
32bbK
16.ccc
32bbJJk
=||
4.cc
8r
==
*-
